build-source/logos/ndrkultur.default.svg

<?xml version="1.0" encoding="UTF-8" standalone="no"?>
<!-- Created with Inkscape (http://www.inkscape.org/) -->
<svg xmlns:svg="http://www.w3.org/2000/svg" xmlns="http://www.w3.org/2000/svg" version="1.0" width="602.36218" height="233.50394" id="svg2712">
  <defs id="defs2714"/>
  <g id="g2394">
    <path d="M 82.2051,17.72159 L 82.2051,96.47055 L 92.18736,96.47055 L 92.18736,17.72159 L 82.2051,17.72159 z M 92.18736,96.47055 L 92.18736,180.13142 L 121.6588,180.13142 C 141.97825,180.13142 153.03158,172.01251 153.03163,150.81842 L 153.03163,125.46665 C 153.03163,105.02677 141.22399,96.4705 121.6588,96.47055 L 92.18736,96.47055 z M 92.18736,180.13142 L 82.2051,180.13142 L 82.2051,215.78236 L 92.18736,215.78236 L 92.18736,180.13142 z M 82.2051,180.13142 L 82.2051,96.47055 L 64.45886,96.47055 L 64.45886,148.44169 L 36.255,96.47055 L 17.71651,96.47055 L 17.71651,180.13142 L 35.46276,180.13142 L 35.46276,131.32924 L 62.55747,180.13142 L 82.2051,180.13142 z M 161.58786,96.47055 L 161.58786,180.13142 L 180.12634,180.13142 L 180.12634,147.96635 L 190.26705,147.96635 L 205.16122,180.13142 L 225.12575,180.13142 L 207.3795,144.63892 C 217.16529,140.74109 221.16448,132.62218 221.16453,122.45612 C 221.16453,102.39653 209.20488,96.4705 190.90085,96.47055 L 161.58786,96.47055 z M 179.80945,111.20627 L 191.53464,111.20627 C 198.93102,111.20627 203.41834,113.36122 203.41829,121.50543 C 203.41829,128.78773 198.68379,132.75533 191.53464,132.75528 L 179.80945,132.75528 L 179.80945,111.20627 z M 111.2012,112.31541 L 120.07432,112.31541 C 130.3608,112.31541 134.96844,117.20836 134.96849,127.36803 L 134.96849,148.91704 C 134.96849,159.0831 130.36075,164.28661 120.07432,164.28656 L 111.2012,164.28656 L 111.2012,112.31541 z" id="path71" style="fill:#003366;fill-opacity:1;fill-rule:nonzero;stroke:none"/>
    <path d="M 235.42491,84.27 L 235.42491,96.47054 L 250.16063,96.47054 L 250.16063,180.13141 L 265.68859,180.13141 L 265.68859,156.68101 L 274.40327,146.38185 L 291.51572,180.13141 L 309.10351,180.13141 L 285.17777,135.92425 L 306.25144,111.36471 L 288.1883,111.36471 L 273.92792,128.16026 C 271.37368,131.20253 267.71673,134.91018 265.68859,138.45943 L 265.68859,84.27 L 235.42491,84.27 z M 387.21868,87.43897 L 387.21868,160.95913 C 387.21852,175.02308 392.82776,181.24055 407.02475,181.24055 C 411.14446,181.24055 415.24506,180.43563 419.22529,179.49762 L 418.5915,167.29708 C 416.19581,168.08932 413.50213,168.72311 410.98597,168.72311 C 405.00929,168.72306 402.74664,166.62525 402.74664,160.64223 L 402.74664,87.43897 L 387.21868,87.43897 z M 446.79536,89.4988 L 431.26739,93.46002 L 431.26739,111.20626 L 421.28513,111.20626 L 421.28513,123.56526 L 431.26739,123.56526 L 431.26739,160.95913 C 431.26739,175.02303 437.04126,181.24055 451.23192,181.24055 C 455.35158,181.24055 459.30027,180.43563 463.27401,179.49762 L 462.64022,167.29708 C 460.23813,168.08932 457.55713,168.72306 455.03468,168.72311 C 449.05166,168.72311 446.7953,166.62525 446.79535,160.64223 L 446.79535,123.56526 L 462.00642,123.56526 L 462.00642,111.20626 L 446.79535,111.20626 L 446.79536,89.4988 z M 584.64566,109.46333 C 571.64016,109.58375 567.70426,114.19773 561.19525,124.6744 L 561.0368,111.20627 L 546.30108,111.20627 L 546.30108,180.13142 L 561.82904,180.13142 L 561.82904,140.67771 C 567.00716,129.92855 572.43246,125.60603 584.64566,125.46664 L 584.64566,109.46333 z M 316.39216,111.20626 L 316.39216,158.10705 C 316.39216,170.58013 320.28355,181.39905 334.61375,181.399 C 341.77563,181.399 349.95157,176.31597 355.52896,172.20898 L 356.00431,180.13141 L 370.58158,180.13141 L 370.58158,111.20627 L 354.89517,111.20627 L 354.89517,161.90982 C 351.18112,164.95837 345.22984,169.04006 340.31789,169.04001 C 333.28277,169.04001 331.92011,162.70212 331.92011,156.99791 L 331.92011,111.20627 L 316.39216,111.20626 z M 475.63302,111.20626 L 475.63302,158.10705 C 475.63302,170.58013 479.51174,181.39905 493.85461,181.399 C 501.01015,181.399 509.19862,176.31597 514.76982,172.20898 L 515.08672,180.13141 L 529.66399,180.13141 L 529.66399,111.20627 L 514.13603,111.20627 L 514.13603,161.90982 C 510.42198,164.95837 504.46436,169.04006 499.55874,169.04001 C 492.5363,169.04001 491.16096,162.70212 491.16096,156.99791 L 491.16096,111.20626 L 475.63302,111.20626 z" id="path73" style="fill:#993333;fill-opacity:1;fill-rule:nonzero;stroke:none"/>
  </g>
</svg>

<svg xmlns="http://www.w3.org/2000/svg" viewBox="0 0 602.36 233.5"><path d="m82.21 17.722v78.75h9.982v-78.75h-9.982m9.982 78.75v83.66h29.471c20.319 0 31.373-8.119 31.373-29.31v-25.352c0-20.44-11.808-28.996-31.373-28.996h-29.471m0 83.66h-9.982v35.651h9.982v-35.651m-9.982 0v-83.66h-17.746v51.971l-28.2-51.971h-18.538v83.66h17.746v-48.802l27.09 48.802h19.648m79.38-83.66v83.66h18.538v-32.17h10.141l14.894 32.17h19.965l-17.746-35.492c9.786-3.898 13.785-12.02 13.785-22.18 0-20.06-11.96-25.986-30.26-25.986h-29.31m18.222 14.736h11.725c7.396 0 11.884 2.155 11.884 10.299 0 7.282-4.735 11.25-11.884 11.25h-11.725v-21.549m-68.61 1.109h8.873c10.286 0 14.894 4.893 14.894 15.05v21.549c0 10.166-4.608 15.37-14.894 15.37h-8.873v-51.971" fill="#036"/><path d="m235.42 84.27v12.201h14.736v83.66h15.528v-23.45l8.715-10.299 17.11 33.75h17.588l-23.926-44.21 21.07-24.56h-18.06l-14.26 16.796c-2.554 3.042-6.211 6.75-8.239 10.299v-54.19h-30.26m151.79 3.169v73.52c0 14.06 5.609 20.281 19.806 20.281 4.12 0 8.22-.805 12.201-1.743l-.634-12.201c-2.396.792-5.089 1.426-7.606 1.426-5.977 0-8.239-2.098-8.239-8.08v-73.2h-15.528m59.58 2.06l-15.528 3.961v17.746h-9.982v12.359h9.982v37.39c0 14.06 5.774 20.281 19.965 20.281 4.12 0 8.07-.805 12.04-1.743l-.634-12.201c-2.402.792-5.083 1.426-7.606 1.426-5.983 0-8.239-2.098-8.239-8.08v-37.08h15.211v-12.359h-15.211v-21.707m137.85 19.965c-13.01.12-16.941 4.734-23.45 15.211l-.158-13.468h-14.736v68.925h15.528v-39.454c5.178-10.749 10.603-15.07 22.817-15.211v-16m-268.25 1.743v46.901c0 12.473 3.891 23.292 18.222 23.292 7.162 0 15.338-5.083 20.915-9.19l.475 7.922h14.577v-68.925h-15.686v50.704c-3.714 3.049-9.665 7.13-14.577 7.13-7.04 0-8.398-6.338-8.398-12.04v-45.792h-15.528m159.24 0v46.901c0 12.473 3.879 23.292 18.222 23.292 7.156 0 15.344-5.083 20.915-9.19l.317 7.922h14.577v-68.925h-15.528v50.704c-3.714 3.049-9.672 7.13-14.577 7.13-7.02 0-8.398-6.338-8.398-12.04v-45.792h-15.528" fill="#933"/></svg>
